icon-themes/sifr_svg/cmd/sc_showfmexplorer.svg

<svg viewBox="0 0 16 16" xmlns="http://www.w3.org/2000/svg"><path d="m1 0v15h5.0566406c.011465-.0536.0096398-.106545.0273438-.160156l.9160156-2.75v-1.089844h.3457031c.043267-.348221.1278128-.682544.2519531-1h-.5976562v-2h2.2070312c.5515262-.3648042 1.1917808-.5952431 1.8789068-.6660156l1.003906-.3339844h-1.089844v-2h3v1.3632812l.835938-.2773437c.165203-.055483.334817-.0838875.503906-.0859375h.001953.001953c.235998-.0018599.454569.0570719.65625.1484375v-6.1484375zm2 2h3v2h-3zm4 0h3v2h-3zm4 0h3v2h-3zm-8 3h3v2h-3zm4 0h3v2h-3zm8.351562 2c-.066959.0008118-.13378.0118821-.197265.0332031l-3.804688 1.2675781c-1.6178245.0815943-2.9672353 1.4310017-3.049609 3.0488278l-1.2667969 3.804688c-.1656211.501513.3109864.978121.8125.8125l3.8046879-1.267578c1.617825-.08159 2.967235-1.431 3.048828-3.048828l1.267578-3.8046879c.138859-.4182031-.174594-.8491744-.615235-.8457031zm-12.351562 1h3v2h-3zm8.5 2a1.5 1.5 0 0 1 1.5 1.5 1.5 1.5 0 0 1 -1.5 1.5 1.5 1.5 0 0 1 -1.5-1.5 1.5 1.5 0 0 1 1.5-1.5zm-8.5 1h3v2h-3z" fill="#555753"/></svg>

<svg xmlns="http://www.w3.org/2000/svg" viewBox="0 0 16 16">
  <path
     style="fill:#555753"
     d="M 1 0 L 1 15 L 6.0566406 15 C 6.0681056 14.9464 6.0662804 14.893455 6.0839844 14.839844 L 7 12.089844 L 7 11 L 7.3457031 11 C 7.3889701 10.651779 7.4735159 10.317456 7.5976562 10 L 7 10 L 7 8 L 9.2070312 8 C 9.7585574 7.6351958 10.398812 7.4047569 11.085938 7.3339844 L 12.089844 7 L 11 7 L 11 5 L 14 5 L 14 6.3632812 L 14.835938 6.0859375 C 15.001141 6.0304545 15.170755 6.00205 15.339844 6 L 15.341797 6 L 15.34375 6 C 15.579748 5.9981401 15.798319 6.0570719 16 6.1484375 L 16 0 L 1 0 z M 3 2 L 6 2 L 6 4 L 3 4 L 3 2 z M 7 2 L 10 2 L 10 4 L 7 4 L 7 2 z M 11 2 L 14 2 L 14 4 L 11 4 L 11 2 z M 3 5 L 6 5 L 6 7 L 3 7 L 3 5 z M 7 5 L 10 5 L 10 7 L 7 7 L 7 5 z M 15.351562 7 C 15.284603 7.0008118 15.217782 7.0118821 15.154297 7.0332031 L 11.349609 8.3007812 C 9.7317845 8.3823755 8.3823737 9.7317829 8.3 11.349609 L 7.0332031 15.154297 C 6.867582 15.65581 7.3441895 16.132418 7.8457031 15.966797 L 11.650391 14.699219 C 13.268216 14.617629 14.617626 13.268219 14.699219 11.650391 L 15.966797 7.8457031 C 16.105656 7.4275 15.792203 6.9965287 15.351562 7 z M 3 8 L 6 8 L 6 10 L 3 10 L 3 8 z M 11.5 10 A 1.5 1.5 0 0 1 13 11.5 A 1.5 1.5 0 0 1 11.5 13 A 1.5 1.5 0 0 1 10 11.5 A 1.5 1.5 0 0 1 11.5 10 z M 3 11 L 6 11 L 6 13 L 3 13 L 3 11 z "
     />
</svg>
